package/converter/svg/regular/toggle-off.svg

<svg xmlns="http://www.w3.org/2000/svg" viewBox="0 0 576 512"><!-- Font Awesome Pro 6.0.0-alpha2 by @fontawesome - https://fontawesome.com License - https://fontawesome.com/license (Commercial License) --><path d="M384 64H192C85.961 64 0 149.961 0 256S85.961 448 192 448H384C490.039 448 576 362.039 576 256S490.039 64 384 64ZM384 400H192C112.598 400 48 335.402 48 256S112.598 112 192 112H384C463.402 112 528 176.598 528 256S463.402 400 384 400ZM192 160C138.98 160 96 202.98 96 256S138.98 352 192 352S288 309.02 288 256S245.02 160 192 160ZM192 304C165.533 304 144 282.467 144 256S165.533 208 192 208S240 229.533 240 256S218.467 304 192 304Z"/></svg>

<svg xmlns="http://www.w3.org/2000/svg" viewBox="0 0 576 512"><!--! Font Awesome Pro 6.6.0 by @fontawesome - https://fontawesome.com License - https://fontawesome.com/license (Commercial License) Copyright 2024 Fonticons, Inc. --><path d="M384 112c79.5 0 144 64.5 144 144s-64.5 144-144 144l-192 0c-79.5 0-144-64.5-144-144s64.5-144 144-144l192 0zM576 256c0-106-86-192-192-192L192 64C86 64 0 150 0 256S86 448 192 448l192 0c106 0 192-86 192-192zm-336 0a48 48 0 1 1 -96 0 48 48 0 1 1 96 0zM96 256a96 96 0 1 0 192 0A96 96 0 1 0 96 256z"/></svg>
